X:1
T:While to Bethlehem We Are Going
T:While to Bethlehem We Are Going
T:Scott Werdebaugh, 2017
T:Violante do Céu, tr. John Adamson, 1842
T:Public Domain Courtesy of the Cyber Hymnal™
C:Scott Werdebaugh, 2017
Z:Public Domain
Z:Courtesy of the Cyber Hymnal™
%%score 1 2
L:1/8
Q:1/4=113
M:4/4
K:C
V:1 treble 
V:2 bass 
V:1
"^Joyfully" [EG]2 [CF]2 [CE]2 [EG]-[EG] | [FA]2 [GB]2 [FA]2 [EG]-[EG] | [Ec]2 [DB]2 [CA]2 [CG]2 | %3
w: 1.~While to Beth- l’hem *|we are go- ing, *|Tell me now to|
w: 2.~Where- fore from His *|throne ex- alt- ed, *|Came He on this|
w: 3.~Why did He the *|Lord e- ter- nal, *|Mor- tal pil- grim|
w: 4.~Well, then, let us *|haste to Beth- l’em; *|Thith- er let us|
 [CA]2 [DF]2 [CE]4 | [Ec]2 [DB]2 [CA]2 [CG]-[CG] | [CA]2 [DB]2 [CA]2 [CG]2 | %6
w: cheer the road;|Tell me why this *|love- ly In- fant,|
w: earth to dwell;|All His pomp a *|hum- ble man- ger;|
w: deign to be;|He who fash- ioned *|for His glo- ry|
w: haste and rest;|For, of all Heav’n’s *|gifts, the sweet- est|
 [Ec]2 [DB]2 [CA]2 [DB]2 | [Ec]2 [DB]2 [Ec]4 ||"^Refrain" [Ec]2 [DB]2 [CA]2 [CG]2 | %9
w: Quit- ted His di-|vine a- bode!||
w: All His court a|nar- row cell!||
w: Bound- less im- mor-|tal- i- ty?||
w: Sure, is peace— the|sweet- est, best.||
 [CA]2 [CF]2 [CE]4 | [Ec]4 [CA][DB] [Ec]2 | [Ec]4 [Fc]4 | [Gc]4 [DB]4 | [CA]2 [DB]2 [Ec]2 [Gd]2 | %14
w: |||||
w: |||||
w: |||||
w: |||||
 [Ec]2 [DB]2 !fermata![Ec]4 |] %15
w: |
w: |
w: |
w: |
V:2
 [C,C]2 [F,A,]2 [C,G,]2 [C,C]-[C,C] | [F,C]2 [G,D]2 [F,C]2 [C,C]-[C,C] | %2
w: ~ ~ ~ ~ *|~ ~ ~ ~ *|
 [C,G,]2 [G,,G,]2 [F,,F,]2 [C,E,]2 | [F,,F,]2 [G,,B,]2 [C,G,]4 | %4
w: ~ ~ ~ ~|~ ~ ~|
 [C,G,]2 [G,,G,]2 [F,,F,]2 [C,E,]-[C,E,] | [F,,F,]2 [G,,G,]2 [F,,F,]2 [C,E,]2 | %6
w: ~ ~ ~ ~ *|~ ~ ~ ~|
 [C,G,]2 [G,,G,]2 [F,,F,]2 [G,,G,]2 | [C,G,]2 [G,,G,]2 [C,G,]4 || %8
w: ~ ~ ~ ~|~ ~ ~|
 [C,G,]2 [G,,G,]2 [F,,F,]2 [C,E,]2 | [F,,F,]2 [F,A,]2 [C,G,]4 | [C,G,]4 [F,,F,][G,,G,] [C,G,]2 | %11
w: “From that world to|bring to this|Peace; which of all|
 [C,G,]4 [F,A,]4 | [C,E,]4 [G,,G,]4 | [F,,F,]2 [G,,G,]2 [C,G,]2 [G,B,]2 | %14
w: earth- ly|bliss- es,|Is the bright- est,|
 [C,G,]2 [G,,F,]2 !fermata![C,G,]4 |] %15
w: pur- est bliss.”|

